X:1
T:Title
%%score 1 { 2 | 3 }
L:1/8
Q:1/4=90
M:6/8
K:A
V:1 treble nm="Grand Piano, Soprano"
V:2 bass nm="Grand Piano, Bass"
V:3 bass 
V:1
 [CE][CE][CE] [DF][CE][CE] | [A,C][CE][CA] [Ec]3 | [EB][EA][EG] [^DA][DG][DF] | E2 C .D3 | %4
w: 1.~Who~ but~ the~ Chris tian~ is~|hap py~ and~ free,~|Filled~ with~ the~ glo ry~ of~|God?~ * *|
 [CE][CE][CE] [DF][CE][CE] | [A,C][CE][CA] [Ec]3 | [DB][DA][DF] [CE][A,C][CE] | %7
w: None~ in~ cre a tion~ so~|hap py~ as~ He,~|Washed~ and~ re deemed~ in~ the~|
 [CA][B,G][DB] [CA]3 | [Ec][Ec][Ec] [Ec][Ec][Ec] | [Ec][Ee][Ac] [GB]3 | [GB][GB][GB] [GB][GB][GB] | %11
w: won der ful~ blood.~||||
 [GB][Ac][EB] [EA]3 | [DF][DF][DF] [FA][EG][DF] | [CE][CE][CA] [Ec]3 | [DB][DA][DF] [CE][A,C][CE] | %15
w: ||||
 [CA][B,G][DB] [CA]3 |] %16
w: |
V:2
 A,A,A, A,A,A, | E,A,A, A,3 | DCB, B,B,A, | G,2 A, .B,3 | A,A,A, A,A,A, | E,A,A, A,3 | %6
 F,F,A, A,E,A, | A,E,E, E,3 | A,A,A, A,A,A, | A,[K:treble]CE E3 | EEE EEE | EED C3 | %12
 A,A,A, A,A,A, | A,A,A, A,3 | F,F,A, A,E,A, | A,E,E, E,3 |] %16
V:3
 A,,A,,A,, A,,A,,A,, | A,,A,,A,, A,,3 | E,E,E, B,,B,,B,, | E,6 | A,,A,,A,, A,,A,,A,, | %5
 A,,A,,A,, A,,3 | D,D,D, A,,A,,A,, | .E,3 A,,3 | z6 | z A,A, E,3 | E,E,E, E,E,E, | E,E,E, A,,3 | %12
 D,D,D, D,D,D, | A,,A,,A,, A,,3 | D,D,D, A,,A,,A,, | .E,3 A,,3 |] %16

